X: 6
T: John Stenson's
R: reel
M: 4/4
L: 1/8
K: Amaj
|:c |ABcA B2cB|ABcA BF F2|ABcA B3c |e2 cA BAFA|
ABcA B2cB|ABcA BAFA|(3Bcd dc dfed|1cABG A3B:|2cABG ABcd||
|:e2 cA e2 cA|e2 cA BAFA|e2 cA e2 cA|.B.B.Bc BAFA|
e2 cA e2 cA|e2 cA BAFA|(3Bcd dc dfed:|1 cABG ABcd :|2 cdBc A2cB||


Tune 1163	Setting 1817

